icons/4_Outdated/GitLab v1.svg

<svg width="1024" height="1024" viewBox="0 0 1024 1024" fill="none" xmlns="http://www.w3.org/2000/svg">
<g clip-path="url(#clip0_3_557)">
<path d="M512 1024C794.77 1024 1024 794.77 1024 512C1024 229.23 794.77 0 512 0C229.23 0 0 229.23 0 512C0 794.77 229.23 1024 512 1024Z" fill="#F8C18C"/>
<path d="M766.71 552.841L738.1 464.681L681.3 290.101C680.674 288.142 679.441 286.433 677.781 285.22C676.12 284.007 674.116 283.353 672.06 283.353C670.003 283.353 668 284.007 666.339 285.22C664.678 286.433 663.445 288.142 662.82 290.101L606 464.641H417.64L360.87 290.101C357.97 281.101 345.22 281.101 342.34 290.041L285.54 464.631L256.93 552.851C255.686 556.768 255.698 560.976 256.966 564.886C258.234 568.795 260.693 572.21 264 574.651L511.84 754.651L759.68 574.651C762.989 572.207 765.446 568.783 766.702 564.866C767.958 560.948 767.95 556.734 766.68 552.821" fill="white"/>
</g>
<defs>
<clipPath id="clip0_3_557">
<rect width="1024" height="1024" fill="white"/>
</clipPath>
</defs>
</svg>

<svg width="1024" height="1024" fill="none" xmlns="http://www.w3.org/2000/svg"><g clip-path="url(#a)"><path d="M512 1024c282.77 0 512-229.23 512-512S794.77 0 512 0 0 229.23 0 512s229.23 512 512 512Z" fill="#F8C18C"/><path d="m766.71 552.841-28.61-88.16-56.8-174.58a9.705 9.705 0 0 0-9.24-6.748 9.7 9.7 0 0 0-9.24 6.748L606 464.641H417.64l-56.77-174.54c-2.9-9-15.65-9-18.53-.06l-56.8 174.59-28.61 88.22a19.691 19.691 0 0 0 7.07 21.8l247.84 180 247.84-180a19.61 19.61 0 0 0 7-21.83" fill="#fff"/></g><defs><clipPath id="a"><path fill="#fff" d="M0 0h1024v1024H0z"/></clipPath></defs></svg>
